; generated by PrusaSlicer 2.6.1+win64 on 2024-12-05 at 01:21:22 UTC


;
;
; 

; external perimeters extrusion width = 0.45mm
; perimeters extrusion width = 0.45mm
; infill extrusion width = 0.45mm
; solid infill extrusion width = 0.45mm
; top infill extrusion width = 0.40mm
; first layer extrusion width = 0.42mm

M73 P0 R86
;TYPE:Custom
M104 S255 ; set extruder temp
M140 S100 ; set bed temp
M190 S100 ; wait for bed temp
M109 S255 ; wait for extruder temp
G28;
G1 Z4.0 F3000 ;Move Z Axis up
G92 E0 ;Reset Extruder
G1 X5.1 Y20 Z0.28 F5000.0 ;Move to start position
G1 X5.1 Y30.0 Z0.28 F1500.0 E1 ;Draw a short bit in case the extruder turns in the wrong direction
G1 X5.1 Y200.0 Z0.28 F1500.0 E15 ;Draw the first line
G1 X5.4 Y200.0 Z0.28 F5000.0 ;Move to side a little
M73 P0 R85
G1 X5.4 Y20 Z0.28 F1500.0 E30 ;Draw the second line
G92 E0 ;Reset Extruder
G1 Z2.0 F3000 ;Move Z Axis up
G21 ; set units to millimeters
G90 ; use absolute coordinates
M83 ; use relative distances for extrusion
; Filament gcode
M107
;LAYER_CHANGE
;Z:0.2
;HEIGHT:0.2
;BEFORE_LAYER_CHANGE
G92 E0.0
;0.2


G1 E-.5 F1800
G1 Z.2 F720
;AFTER_LAYER_CHANGE
;0.2
G1 X122.424 Y141.765 F10800
G1 E.5 F1800
M204 S800
;TYPE:Skirt/Brim
;WIDTH:0.42
G1 F1200
G1 X123.16 Y141.145 E.03017
G1 X124.118 Y140.659 E.03368
G1 X125.318 Y140.397 E.03851
G1 X150.086 Y138.859 E.77808
G1 X152.408 Y139.013 E.07296
G1 X154.753 Y139.479 E.07496
G1 X157.019 Y140.247 E.07502
G1 X159.182 Y141.316 E.07565
G1 X161.196 Y142.669 E.07607
G1 X163.022 Y144.288 E.07652
G1 X164.634 Y146.163 E.07753
G1 X165.9 Y148.109 E.07279
G1 X166.264 Y149.099 E.03307
G1 X166.363 Y150.168 E.03366
G1 X166.194 Y151.166 E.03174
G1 X165.792 Y152.086 E.03148
G1 X164.661 Y153.801 E.06441
G1 X163.315 Y155.407 E.0657
G1 X161.738 Y156.896 E.068
G1 X160.146 Y158.085 E.0623
G1 X158.957 Y158.812 E.0437
G1 X157.675 Y159.466 E.04512
G1 X156.351 Y160.014 E.04493
G1 X155.091 Y160.427 E.04157
G1 X152.427 Y160.985 E.08534
G1 X149.755 Y161.14 E.08392
G1 X125.191 Y159.591 E.77172
G1 X124.119 Y159.341 E.03451
G1 X123.26 Y158.92 E.02999
G1 X122.507 Y158.32 E.03019
G1 X121.906 Y157.573 E.03006
G1 X121.394 Y156.466 E.03824
G1 X121.189 Y155.276 E.03786
G1 X121.198 Y144.565 E.33584
G1 X121.393 Y143.536 E.03284
G1 X121.842 Y142.529 E.03457
G1 X122.388 Y141.813 E.02823
M204 S1000
G1 X122.691 Y142.033 F10800
M204 S800
G1 F1200
G1 X123.365 Y141.461 E.02772
G1 X124.252 Y141.012 E.03117
G1 X125.354 Y140.773 E.03536
G1 X150.085 Y139.236 E.77692
G1 X152.358 Y139.387 E.07143
G1 X154.653 Y139.843 E.07336
G1 X156.877 Y140.596 E.07362
G1 X158.991 Y141.641 E.07394
G1 X160.967 Y142.968 E.07463
G1 X162.755 Y144.555 E.07496
G1 X164.334 Y146.391 E.07593
G1 X165.557 Y148.267 E.07022
G1 X165.897 Y149.186 E.03072
G1 X165.984 Y150.212 E.03228
G1 X165.796 Y151.173 E.0307
G1 X165.333 Y152.12 E.03305
G1 X164.219 Y153.761 E.06219
G1 X162.923 Y155.272 E.06242
G1 X161.494 Y156.608 E.06134
G1 X159.903 Y157.794 E.06222
G1 X157.649 Y159.062 E.08109
G1 X156.394 Y159.595 E.04275
G1 X155.128 Y160.023 E.0419
G1 X153.895 Y160.342 E.03993
G1 X152.427 Y160.604 E.04676
G1 X149.921 Y160.765 E.07874
G1 X125.227 Y159.215 E.77579
G1 X124.252 Y158.988 E.03139
G1 X123.466 Y158.604 E.02743
G1 X122.777 Y158.056 E.0276
G1 X122.226 Y157.374 E.02749
G1 X121.755 Y156.359 E.03508
G1 X121.565 Y155.263 E.03488
G1 X121.574 Y144.599 E.33436
G1 X121.72 Y143.762 E.02664
G1 X122.08 Y142.874 E.03004
G1 X122.656 Y142.082 E.03071
M204 S1000
; printing object 3dbenchy.stl id:0 copy 0
;WIPE_START
G1 F8640
G1 X123.365 Y141.461 E-.18654
G1 X124.252 Y141.012 E-.19676
G1 X124.828 Y140.887 E-.1167
;WIPE_END
G1 X159.219 Y147.697 F10800
G1 E.5 F1800
M204 S800
;TYPE:Perimeter
;WIDTH:0.419999
G1 F1200
G1 X157.998 Y147.7 E.03828
G1 X157.399 Y147.793 E.01901
G1 X156.938 Y148.039 E.01638
G1 X156.771 Y148.264 E.00879
G1 X156.456 Y147.914 E.01476
G1 X156.026 Y147.734 E.01462
G1 X155.718 Y147.73 E.00966
G1 X155.358 Y147.848 E.01188
G1 X155.146 Y148.002 E.00822
G1 X154.741 Y148.509 E.02035
G1 X154.538 Y149.044 E.01794
G1 X154.353 Y148.457 E.0193
G1 X154.12 Y148.119 E.01287
G1 X153.792 Y147.875 E.01282
G1 X153.384 Y147.727 E.01361
G1 X152.934 Y147.719 E.01411
G1 X152.488 Y147.874 E.0148
G1 X152.15 Y148.208 E.0149
G1 X151.933 Y147.975 E.00998
G1 X151.488 Y147.745 E.01571
G1 X151.081 Y147.72 E.01279
G1 X150.716 Y147.854 E.01219
G1 X150.345 Y148.167 E.01522
G1 X150.174 Y148.419 E.00955
G1 X150.005 Y148.142 E.01017
G1 X149.605 Y147.822 E.01606
G1 X149.18 Y147.709 E.01379
G1 X148.73 Y147.769 E.01423
G1 X148.37 Y147.947 E.01259
G1 X148.07 Y148.252 E.01341
G1 X147.906 Y148.644 E.01332
G1 X147.902 Y149.096 E.01417
G1 X148.056 Y149.59 E.01622
G1 X148.708 Y150.754 E.04183
G1 X148.557 Y150.997 E.00897
G1 X148.294 Y151.56 E.01948
G1 X148.213 Y151.392 E.00585
G1 X147.948 Y151.051 E.01354
G1 X147.521 Y150.763 E.01615
G1 X147.288 Y150.677 E.00779
G1 X146.688 Y150.624 E.01889
G1 X146.316 Y150.721 E.01205
G1 X146.397 Y149.785 E.02946
G1 X146.36 Y149.255 E.01666
G1 X146.225 Y148.572 E.02183
G1 X146.061 Y148.091 E.01593
G1 X145.769 Y147.558 E.01906
G1 X145.403 Y147.11 E.01814
G1 X145.007 Y146.783 E.0161
G1 X144.528 Y146.531 E.01697
G1 X144.003 Y146.375 E.01717
G1 X143.352 Y146.284 E.02061
G1 X141.745 Y146.247 E.0504
G1 X141.372 Y146.282 E.01175
G1 X140.881 Y146.457 E.01634
G1 X140.539 Y146.763 E.01439
G1 X140.346 Y147.174 E.01424
;WIDTH:0.461926
G1 X140.319 Y147.347 E.0061
;WIDTH:0.503853
G1 X140.293 Y147.52 E.0067
;WIDTH:0.54578
G1 X140.266 Y147.693 E.00732
G1 X140.15 Y147.478 E.01021
;WIDTH:0.503853
G1 X140.033 Y147.262 E.00942
;WIDTH:0.461926
G1 X139.917 Y147.047 E.00851
;WIDTH:0.419999
G1 X139.524 Y146.612 E.01838
G1 X138.948 Y146.282 E.02081
G1 X138.298 Y146.12 E.021
G1 X137.527 Y146.094 E.02419
G1 X136.799 Y146.213 E.02313
G1 X136.286 Y146.435 E.01753
G1 X135.76 Y146.861 E.02122
G1 X135.524 Y146.562 E.01194
G1 X135.188 Y146.357 E.01234
G1 X134.714 Y146.258 E.01518
G1 X131.541 Y146.269 E.09949
G1 X130.829 Y146.23 E.02236
G1 X130.258 Y146.387 E.01857
G1 X129.952 Y146.677 E.01322
G1 X129.744 Y147.009 E.01228
G1 X129.44 Y146.681 E.01402
G1 X129.038 Y146.409 E.01522
G1 X128.66 Y146.245 E.01292
G1 X128.126 Y146.121 E.01719
G1 X127.553 Y146.088 E.018
G1 X126.861 Y146.161 E.02182
G1 X126.211 Y146.372 E.02143
G1 X125.576 Y146.756 E.02327
G1 X125.143 Y147.174 E.01887
G1 X124.907 Y147.512 E.01293
G1 X124.917 Y145.264 E.07049
G1 X124.963 Y144.898 E.01157
G1 X125.07 Y144.587 E.01031
G1 X125.305 Y144.316 E.01125
G1 X125.504 Y144.225 E.00686
G1 X125.854 Y144.133 E.01135
G1 X149.158 Y142.717 E.73203
G1 X150.241 Y142.693 E.03396
G1 X151.036 Y142.726 E.02495
G1 X151.735 Y142.793 E.02202
G1 X152.309 Y142.873 E.01817
G1 X152.974 Y142.996 E.0212
G1 X153.861 Y143.217 E.02866
G1 X154.511 Y143.413 E.02129
G1 X155.2 Y143.665 E.023
G1 X155.754 Y143.894 E.0188
G1 X156.623 Y144.318 E.03032
G1 X157.157 Y144.61 E.01908
G1 X157.778 Y144.995 E.02291
G1 X158.346 Y145.386 E.02162
G1 X158.95 Y145.851 E.0239
G1 X159.502 Y146.324 E.02279
G1 X159.949 Y146.746 E.01927
G1 X160.5 Y147.321 E.02497
;WIDTH:0.465559
G1 X160.556 Y147.42 E.004
;WIDTH:0.511119
G1 X160.612 Y147.518 E.00439
;WIDTH:0.556679
G1 X160.667 Y147.617 E.00484
;WIDTH:0.602239
G1 X160.723 Y147.715 E.00525
;WIDTH:0.647798
G1 X160.779 Y147.814 E.00572
G1 X160.708 Y147.803 E.00361
;WIDTH:0.605092
G1 X160.638 Y147.792 E.00331
;WIDTH:0.562386
G1 X160.568 Y147.781 E.00306
;WIDTH:0.519679
G1 X160.306 Y147.74 E.01051
;WIDTH:0.469839
G1 X160.044 Y147.699 E.00941
;WIDTH:0.419999
G1 X159.279 Y147.697 E.02399
M204 S1000
;WIPE_START
G1 F8640
G1 X157.998 Y147.7 E-.25353
G1 X157.399 Y147.793 E-.11997
G1 X156.938 Y148.039 E-.10342
G1 X156.869 Y148.133 E-.02308
;WIPE_END
G1 X159.952 Y151.363 F10800
G1 E.5 F1800
M204 S800
G1 F1200
G1 X160.478 Y150.652 E.02773
G1 X160.989 Y149.909 E.02827
G1 X161.2 Y149.41 E.01699
G1 X161.229 Y148.85 E.01758
;WIDTH:0.460156
G1 X161.22 Y148.74 E.00383
;WIDTH:0.500313
G1 X161.211 Y148.631 E.00416
;WIDTH:0.540469
G1 X161.202 Y148.521 E.00457
;WIDTH:0.580626
G1 X161.192 Y148.411 E.00494
;WIDTH:0.620782
G1 X161.183 Y148.302 E.00526
G1 X161.254 Y148.36 E.00441
;WIDTH:0.575816
G1 X161.325 Y148.418 E.00406
;WIDTH:0.530849
G1 X161.396 Y148.476 E.00372
;WIDTH:0.485882
G1 X161.466 Y148.535 E.00337
;WIDTH:0.440915
G1 X161.673 Y148.803 E.01121
;WIDTH:0.419999
G1 X161.987 Y149.282 E.01796
G1 X162.279 Y149.794 E.01848
G1 X162.316 Y150.087 E.00926
G1 X162.24 Y150.296 E.00697
G1 X161.834 Y150.957 E.02432
G1 X161.098 Y152.054 E.04142
G1 X160.963 Y151.826 E.00831
G1 X160.748 Y151.622 E.00929
G1 X160.376 Y151.426 E.01318
G1 X160.011 Y151.371 E.01157
M204 S1000
;WIPE_START
G1 F8640
G1 X160.478 Y150.652 E-.16968
G1 X160.989 Y149.909 E-.17847
G1 X161.2 Y149.41 E-.10723
G1 X161.212 Y149.185 E-.04462
;WIPE_END
G1 X139.741 Y149.474 F10800
G1 E.5 F1800
M204 S800
;WIDTH:0.503083
G1 F1200
G1 X140.014 Y149.179 E.01538
G1 X140.159 Y148.905 E.01186
;WIDTH:0.533866
G1 X140.29 Y148.407 E.02102
G1 X140.305 Y148.921 E.02099
;WIDTH:0.503083
G1 X140.303 Y150.183 E.04829
G1 X140.173 Y149.909 E.0116
G1 X140.015 Y149.705 E.00987
G1 X139.787 Y149.513 E.01141
M204 S1000
;WIPE_START
G1 F8640
G1 X140.014 Y149.179 E-.07993
G1 X140.159 Y148.905 E-.06135
G1 X140.29 Y148.407 E-.10192
G1 X140.305 Y148.921 E-.10177
G1 X140.304 Y149.704 E-.15503
;WIPE_END
G1 X129.313 Y149.084 F10800
G1 E.5 F1800
M204 S800
;WIDTH:0.419999
G1 F1200
G1 X129.636 Y148.898 E.01169
G1 X129.966 Y148.456 E.0173
G1 X130.184 Y148.615 E.00846
G1 X130.481 Y148.761 E.01038
G1 X130.957 Y148.823 E.01505
G1 X131.495 Y148.762 E.01698
G1 X131.51 Y151.553 E.08751
G1 X131.496 Y152.35 E.02499
G1 X131.517 Y152.836 E.01525
G1 X131.689 Y153.211 E.01294
G1 X132.044 Y153.515 E.01465
G1 X132.256 Y153.612 E.00731
G1 X132.66 Y153.696 E.01294
G1 X133.07 Y153.651 E.01293
G1 X133.451 Y153.485 E.01303
G1 X133.752 Y153.195 E.01311
G1 X133.936 Y152.843 E.01245
G1 X134.029 Y152.361 E.01539
G1 X134.014 Y148.794 E.11184
G1 X134.211 Y148.796 E.00618
G1 X134.804 Y148.751 E.01865
G1 X135.346 Y148.566 E.01796
G1 X135.642 Y148.302 E.01244
G1 X135.796 Y148.518 E.00832
G1 X136.002 Y148.728 E.00922
G1 X136.388 Y148.927 E.01362
G1 X136.349 Y148.97 E.00182
G1 X136.143 Y149.439 E.01606
G1 X136.116 Y149.968 E.01661
G1 X136.3 Y150.418 E.01524
G1 X136.57 Y150.682 E.01184
;WIDTH:0.454216
G1 X136.741 Y150.784 E.00681
;WIDTH:0.488432
G1 X136.913 Y150.886 E.00741
G1 X136.706 Y150.882 E.00767
;WIDTH:0.451996
G1 X136.111 Y151.029 E.02085
;WIDTH:0.419999
G1 X135.702 Y151.358 E.01646
G1 X135.551 Y151.574 E.00826
G1 X135.47 Y151.783 E.00703
G1 X135.418 Y152.196 E.01305
G1 X135.481 Y152.591 E.01254
G1 X135.625 Y152.924 E.01138
G1 X135.907 Y153.274 E.01409
G1 X136.32 Y153.549 E.01556
G1 X137.035 Y153.783 E.02359
G1 X137.915 Y153.839 E.02765
G1 X138.412 Y153.776 E.01571
G1 X139.172 Y153.501 E.02534
G1 X139.65 Y153.148 E.01863
G1 X140.075 Y152.635 E.02089
G1 X140.329 Y152.128 E.01778
G1 X140.372 Y152.697 E.01789
G1 X140.536 Y153.114 E.01405
G1 X140.871 Y153.502 E.01607
G1 X141.206 Y153.656 E.01156
G1 X141.56 Y153.702 E.01119
G1 X142.127 Y153.664 E.01782
G1 X142.878 Y153.67 E.02355
G1 X143.451 Y153.638 E.01799
G1 X143.953 Y153.559 E.01593
G1 X144.446 Y153.408 E.01617
G1 X144.925 Y153.117 E.01757
G1 X145.163 Y152.88 E.01053
G1 X145.251 Y153.207 E.01062
G1 X145.54 Y153.626 E.01596
G1 X145.714 Y153.786 E.00741
G1 X146.257 Y154.072 E.01924
G1 X146.652 Y154.147 E.01261
G1 X147.179 Y154.097 E.0166
G1 X147.554 Y153.944 E.0127
G1 X147.972 Y153.622 E.01654
G1 X148.157 Y153.312 E.01132
G1 X148.218 Y153.424 E.004
G1 X148.419 Y153.612 E.00863
G1 X148.632 Y153.738 E.00776
G1 X148.96 Y153.825 E.01064
G1 X149.401 Y153.779 E.0139
G1 X149.758 Y153.573 E.01292
G1 X150.109 Y153.076 E.01908
G1 X150.351 Y153.476 E.01466
G1 X150.643 Y153.722 E.01197
G1 X150.971 Y153.853 E.01107
G1 X151.326 Y153.873 E.01115
;WIDTH:0.439297
G1 X151.802 Y153.767 E.01607
;WIDTH:0.483411
G1 X152.028 Y153.614 E.01
;WIDTH:0.527524
G1 X152.254 Y153.462 E.01097
;WIDTH:0.547458
G1 X152.44 Y153.181 E.01414
;WIDTH:0.575176
G1 X152.506 Y152.946 E.0108
;WIDTH:0.602893
G1 X152.571 Y152.711 E.01135
G1 X152.536 Y152.513 E.00936
;WIDTH:0.564571
G1 X152.501 Y152.315 E.00872
;WIDTH:0.526397
G1 X152.315 Y151.827 E.02099
G1 X152.11 Y151.519 E.01487
;WIDTH:0.490931
G1 X151.906 Y151.212 E.01373
;WIDTH:0.455465
G1 X151.701 Y150.905 E.01266
;WIDTH:0.419999
G1 X151.591 Y150.721 E.00672
G1 X152.116 Y149.776 E.0339
G1 X152.408 Y150.564 E.02635
;WIDTH:0.455465
G1 X152.521 Y150.915 E.01265
;WIDTH:0.490931
G1 X152.635 Y151.266 E.01375
;WIDTH:0.526397
G1 X152.957 Y152.161 E.03824
;WIDTH:0.564571
G1 X153.055 Y152.438 E.01274
;WIDTH:0.602893
G1 X153.153 Y152.715 E.01368
G1 X152.96 Y153.239 E.026
;WIDTH:0.564939
G1 X152.742 Y153.709 E.02249
G1 X152.589 Y153.786 E.00743
;WIDTH:0.528487
G1 X152.436 Y153.863 E.00692
;WIDTH:0.492035
G1 X152.282 Y153.939 E.00641
;WIDTH:0.455583
G1 X151.92 Y154.163 E.01461
;WIDTH:0.435038
G1 X151.679 Y154.409 E.01123
;WIDTH:0.419999
G1 X151.529 Y154.755 E.01182
G1 X151.526 Y155.3 E.01709
G1 X151.693 Y155.743 E.01484
G1 X152.013 Y156.124 E.0156
G1 X152.247 Y156.269 E.00863
;WIDTH:0.459882
G1 X152.444 Y156.333 E.00718
;WIDTH:0.499765
G1 X152.642 Y156.398 E.00792
;WIDTH:0.539648
G1 X152.84 Y156.463 E.00861
G1 X153.437 Y156.361 E.02502
;WIDTH:0.549233
G1 X154.036 Y156.14 E.02688
G1 X154.103 Y156.076 E.0039
;WIDTH:0.505939
G1 X154.17 Y156.012 E.00357
;WIDTH:0.462645
G1 X154.554 Y155.645 E.01854
;WIDTH:0.419999
G1 X154.894 Y155.139 E.01911
G1 X155.307 Y154.181 E.03271
G1 X155.562 Y153.524 E.0221
G1 X156.524 Y150.834 E.08957
G1 X156.854 Y149.78 E.03463
G1 X157.007 Y149.923 E.00657
G1 X157.274 Y150.063 E.00945
G1 X157.795 Y150.154 E.01658
G1 X157.378 Y150.637 E.02001
;WIDTH:0.459463
G1 X156.77 Y151.436 E.03478
G1 X156.515 Y151.974 E.02062
;WIDTH:0.421805
G1 X156.453 Y152.183 E.00687
G1 X156.436 Y152.793 E.01923
;WIDTH:0.419999
G1 X156.619 Y153.292 E.01666
G1 X156.943 Y153.662 E.01542
G1 X157.361 Y153.842 E.01427
G1 X157.589 Y153.882 E.00726
G1 X159.365 Y153.832 E.05571
G1 X158.429 Y154.554 E.03706
G1 X157.537 Y155.161 E.03383
G1 X156.431 Y155.781 E.03975
G1 X155.563 Y156.19 E.03009
G1 X154.998 Y156.417 E.01909
;WIDTH:0.44676
G1 X154.721 Y156.5 E.00971
;WIDTH:0.473521
G1 X154.444 Y156.583 E.01035
;WIDTH:0.506184
G1 X154.199 Y156.641 E.0097
;WIDTH:0.538847
G1 X153.195 Y156.902 E.04278
;WIDTH:0.526253
G1 X152.871 Y156.993 E.01353
;WIDTH:0.476444
G1 X152.548 Y157.085 E.01211
;WIDTH:0.426634
G1 X151.99 Y157.178 E.01805
;WIDTH:0.419999
G1 X151.385 Y157.249 E.0191
G1 X150.758 Y157.294 E.01971
G1 X149.991 Y157.312 E.02406
G1 X149.183 Y157.285 E.02535
G1 X126.234 Y155.89 E.72088
G1 X125.712 Y155.84 E.01644
G1 X125.436 Y155.742 E.00918
G1 X125.179 Y155.564 E.0098
G1 X125.009 Y155.265 E.01078
G1 X124.918 Y154.922 E.01113
G1 X124.912 Y152.434 E.07801
G1 X125.188 Y152.808 E.01457
G1 X125.762 Y153.307 E.02385
G1 X126.546 Y153.687 E.02732
G1 X127.207 Y153.821 E.02115
G1 X128.025 Y153.817 E.02565
G1 X128.474 Y153.74 E.01428
G1 X128.868 Y153.607 E.01304
G1 X129.224 Y153.417 E.01265
G1 X129.539 Y153.172 E.01251
G1 X129.867 Y152.785 E.01591
G1 X130.098 Y152.304 E.01673
G1 X130.153 Y152.082 E.00717
G1 X130.099 Y151.669 E.01306
G1 X129.991 Y151.416 E.00863
G1 X129.813 Y151.182 E.00922
G1 X129.641 Y151.032 E.00716
G1 X129.187 Y150.807 E.01589
G1 X128.737 Y150.759 E.01419
G1 X128.341 Y150.834 E.01264
G1 X128.002 Y151.026 E.01222
G1 X127.809 Y151.222 E.00862
G1 X127.575 Y151.271 E.0075
G1 X127.27 Y151.203 E.0098
G1 X127.086 Y151.059 E.00733
G1 X126.94 Y150.707 E.01195
G1 X126.881 Y150.288 E.01327
G1 X126.869 Y149.746 E.017
G1 X126.937 Y149.201 E.01722
G1 X127.083 Y148.874 E.01123
G1 X127.339 Y148.694 E.00981
G1 X127.603 Y148.68 E.00829
G1 X128.235 Y149.03 E.02265
G1 X128.573 Y149.146 E.0112
G1 X128.925 Y149.18 E.01109
G1 X129.261 Y149.114 E.01074
M204 S1000
G1 X129.151 Y148.758 F10800
M204 S800
;TYPE:External perimeter
G1 F1200
G1 X128.819 Y148.797 E.01048
G1 X128.417 Y148.7 E.01297
G1 X127.715 Y148.311 E.02516
G1 X127.423 Y148.287 E.00919
G1 X127.089 Y148.404 E.0111
G1 X126.881 Y148.529 E.00761
G1 X126.646 Y148.871 E.01301
G1 X126.535 Y149.296 E.01377
